X: 25585
T: Market Town, The
R: jig
M: 6/8
K: Amajor
E3 ECE|EFA A2 f|edc Bcd|cBA F3|
E3 ECE|EFA A2f|edc BAB|1 cAA A2 F:|2 cAA Acd||
|:e2 e ece|f2 g a2 f|edc Bcd|cBA F3|
e2 e ece|f2 ga2 f|edc BAB|1 cAA Acd:|2 cAA A2 F||

